desc:Gfx Draw Test (jmriddell)

options:no_meter

@init
gfx_clear=-1;
gfx_mode=1;

@gfx
function setcol(r g b a)
(
  gfx_r=r; gfx_g=g; gfx_b=b; gfx_a=a;
);
function setpos(x y)
(
  gfx_x=x; gfx_y=y;
);
setcol(1,0.5,0.25,0.5);
aa=1;
  gfx_lineto(mouse_x,mouse_y,aa);
